img/ham0.svg

<svg width="40" height="40" viewBox="0 0 40 40" fill="none" xmlns="http://www.w3.org/2000/svg">
<path d="M29.1002 13.0996H10.9002C10.2002 13.0996 9.7002 13.5996 9.7002 14.2996C9.7002 14.9996 10.2002 15.4996 10.9002 15.4996H29.1002C29.8002 15.4996 30.3002 14.9996 30.3002 14.2996C30.3002 13.5996 29.8002 13.0996 29.1002 13.0996Z" fill="black"/>
<path d="M29.1002 24.5H10.9002C10.2002 24.5 9.7002 25 9.7002 25.7C9.7002 26.4 10.2002 26.9 10.9002 26.9H29.1002C29.8002 26.9 30.3002 26.4 30.3002 25.7C30.3002 25 29.8002 24.5 29.1002 24.5Z" fill="black"/>
<path d="M29.1002 18.8008H10.9002C10.2002 18.8008 9.7002 19.3008 9.7002 20.0008C9.7002 20.7008 10.2002 21.2008 10.9002 21.2008H29.1002C29.8002 21.2008 30.3002 20.7008 30.3002 20.0008C30.3002 19.3008 29.8002 18.8008 29.1002 18.8008Z" fill="black"/>
</svg>

<?xml version="1.0" encoding="utf-8"?>
<!-- Generator: Adobe Illustrator 23.0.5, SVG Export Plug-In . SVG Version: 6.00 Build 0)  -->
<svg version="1.1" id="圖層_1" xmlns="http://www.w3.org/2000/svg" xmlns:xlink="http://www.w3.org/1999/xlink" x="0px" y="0px"
	 viewBox="0 0 40 40" style="enable-background:new 0 0 40 40;" xml:space="preserve">
<style type="text/css">
	.st0{fill:#FFFFFF;}
</style>
<path class="st0" d="M29.1,13.1L29.1,13.1l-18.2,0v0c-0.7,0-1.2,0.5-1.2,1.2c0,0.7,0.5,1.2,1.2,1.2v0h18.2v0c0.7,0,1.2-0.5,1.2-1.2
	C30.3,13.6,29.8,13.1,29.1,13.1z"/>
<path class="st0" d="M29.1,24.5L29.1,24.5l-18.2,0v0c-0.7,0-1.2,0.5-1.2,1.2c0,0.7,0.5,1.2,1.2,1.2v0h18.2v0c0.7,0,1.2-0.5,1.2-1.2
	C30.3,25,29.8,24.5,29.1,24.5z"/>
<path class="st0" d="M29.1,18.8L29.1,18.8l-18.2,0v0c-0.7,0-1.2,0.5-1.2,1.2c0,0.7,0.5,1.2,1.2,1.2v0h18.2v0c0.7,0,1.2-0.5,1.2-1.2
	S29.8,18.8,29.1,18.8z"/>
</svg>
